images/3234658.svg

<?xml version="1.0" encoding="UTF-8"?>
<svg xmlns="http://www.w3.org/2000/svg" xmlns:xlink="http://www.w3.org/1999/xlink" width="300pt" height="300pt" viewBox="0 0 300 300" version="1.1">
<defs>
<g>
<symbol overflow="visible" id="glyph0-0">
<path style="stroke:none;" d="M 0.453125 1.59375 L 0.453125 -6.34375 L 4.953125 -6.34375 L 4.953125 1.59375 Z M 0.953125 1.09375 L 4.453125 1.09375 L 4.453125 -5.84375 L 0.953125 -5.84375 Z M 0.953125 1.09375 "/>
</symbol>
<symbol overflow="visible" id="glyph0-1">
<path style="stroke:none;" d="M 0.890625 -6.5625 L 2.078125 -6.5625 L 4.984375 -1.078125 L 4.984375 -6.5625 L 5.84375 -6.5625 L 5.84375 0 L 4.65625 0 L 1.75 -5.484375 L 1.75 0 L 0.890625 0 Z M 0.890625 -6.5625 "/>
</symbol>
<symbol overflow="visible" id="glyph0-2">
<path style="stroke:none;" d="M 3.546875 -5.953125 C 2.898438 -5.953125 2.382812 -5.710938 2 -5.234375 C 1.625 -4.753906 1.4375 -4.101562 1.4375 -3.28125 C 1.4375 -2.445312 1.625 -1.789062 2 -1.3125 C 2.382812 -0.832031 2.898438 -0.59375 3.546875 -0.59375 C 4.191406 -0.59375 4.703125 -0.832031 5.078125 -1.3125 C 5.453125 -1.789062 5.640625 -2.445312 5.640625 -3.28125 C 5.640625 -4.101562 5.453125 -4.753906 5.078125 -5.234375 C 4.703125 -5.710938 4.191406 -5.953125 3.546875 -5.953125 Z M 3.546875 -6.6875 C 4.460938 -6.6875 5.195312 -6.375 5.75 -5.75 C 6.300781 -5.132812 6.578125 -4.3125 6.578125 -3.28125 C 6.578125 -2.238281 6.300781 -1.410156 5.75 -0.796875 C 5.195312 -0.179688 4.460938 0.125 3.546875 0.125 C 2.617188 0.125 1.878906 -0.179688 1.328125 -0.796875 C 0.773438 -1.410156 0.5 -2.238281 0.5 -3.28125 C 0.5 -4.3125 0.773438 -5.132812 1.328125 -5.75 C 1.878906 -6.375 2.617188 -6.6875 3.546875 -6.6875 Z M 3.546875 -6.6875 "/>
</symbol>
</g>
</defs>
<g id="surface55709">
<rect x="0" y="0" width="300" height="300" style="fill:rgb(100%,100%,100%);fill-opacity:1;stroke:none;"/>
<path style="fill:none;stroke-width:1.2;stroke-linecap:butt;stroke-linejoin:miter;stroke:rgb(0%,0%,0%);stroke-opacity:1;stroke-miterlimit:10;" d="M 150.355469 208.445312 L 126.847656 201.027344 "/>
<path style="fill:none;stroke-width:1.2;stroke-linecap:butt;stroke-linejoin:miter;stroke:rgb(0%,0%,0%);stroke-opacity:1;stroke-miterlimit:10;" d="M 168.53125 191.796875 L 150.355469 208.445312 "/>
<path style="fill:none;stroke-width:1;stroke-linecap:butt;stroke-linejoin:miter;stroke:rgb(0%,0%,0%);stroke-opacity:1;stroke-miterlimit:10;" d="M 121.519531 176.960938 L 121.519531 176.960938 M 121.648438 179.957031 L 122.667969 179.734375 M 121.777344 182.957031 L 123.816406 182.503906 M 121.910156 185.953125 L 124.960938 185.277344 M 122.039062 188.949219 L 126.109375 188.046875 M 122.167969 191.949219 L 127.257812 190.820312 M 122.296875 194.945312 L 128.40625 193.59375 M 122.425781 197.941406 L 129.554688 196.363281 M 122.558594 200.9375 L 130.703125 199.136719 M 122.601562 201.96875 L 131.09375 200.085938 "/>
<path style="fill:none;stroke-width:1.2;stroke-linecap:butt;stroke-linejoin:miter;stroke:rgb(0%,0%,0%);stroke-opacity:1;stroke-miterlimit:10;" d="M 121.519531 176.960938 L 101.699219 191.617188 "/>
<path style="fill:none;stroke-width:1.2;stroke-linecap:butt;stroke-linejoin:miter;stroke:rgb(0%,0%,0%);stroke-opacity:1;stroke-miterlimit:10;" d="M 121.519531 176.960938 L 139.695312 160.3125 "/>
<path style="fill:none;stroke-width:1.2;stroke-linecap:butt;stroke-linejoin:miter;stroke:rgb(0%,0%,0%);stroke-opacity:1;stroke-miterlimit:10;" d="M 113.703125 153.585938 L 121.519531 176.960938 "/>
<path style="fill:none;stroke-width:1.2;stroke-linecap:butt;stroke-linejoin:miter;stroke:rgb(0%,0%,0%);stroke-opacity:1;stroke-miterlimit:10;" d="M 101.699219 191.617188 L 81.636719 177.300781 "/>
<path style="fill:none;stroke-width:1.2;stroke-linecap:butt;stroke-linejoin:miter;stroke:rgb(0%,0%,0%);stroke-opacity:1;stroke-miterlimit:10;" d="M 81.636719 177.300781 L 85.347656 165.546875 "/>
<path style="fill:none;stroke-width:1.2;stroke-linecap:butt;stroke-linejoin:miter;stroke:rgb(0%,0%,100%);stroke-opacity:1;stroke-miterlimit:10;" d="M 85.347656 165.546875 L 89.054688 153.792969 "/>
<path style="fill:none;stroke-width:1.2;stroke-linecap:butt;stroke-linejoin:miter;stroke:rgb(0%,0%,100%);stroke-opacity:1;stroke-miterlimit:10;" d="M 89.054688 153.792969 L 101.378906 153.6875 "/>
<path style="fill:none;stroke-width:1.2;stroke-linecap:butt;stroke-linejoin:miter;stroke:rgb(0%,0%,0%);stroke-opacity:1;stroke-miterlimit:10;" d="M 101.378906 153.6875 L 113.703125 153.585938 "/>
<path style="fill:none;stroke-width:1.2;stroke-linecap:butt;stroke-linejoin:miter;stroke:rgb(0%,0%,100%);stroke-opacity:1;stroke-miterlimit:10;" d="M 89.054688 153.792969 L 81.726562 143.882812 "/>
<path style="fill:none;stroke-width:1.2;stroke-linecap:butt;stroke-linejoin:miter;stroke:rgb(0%,0%,0%);stroke-opacity:1;stroke-miterlimit:10;" d="M 81.726562 143.882812 L 74.398438 133.972656 "/>
<path style=" stroke:none;fill-rule:nonzero;fill:rgb(100%,100%,100%);fill-opacity:1;" d="M 86.054688 148.292969 L 93.054688 148.292969 L 93.054688 159.292969 L 86.054688 159.292969 Z M 86.054688 148.292969 "/>
<g style="fill:rgb(0%,0%,100%);fill-opacity:1;">
  <use xlink:href="#glyph0-1" x="86.054688" y="156.956055"/>
</g>
<path style="fill:none;stroke-width:1.2;stroke-linecap:butt;stroke-linejoin:miter;stroke:rgb(0%,0%,0%);stroke-opacity:1;stroke-miterlimit:10;" d="M 74.398438 133.972656 L 84.234375 111.371094 "/>
<path style="fill:none;stroke-width:1.2;stroke-linecap:butt;stroke-linejoin:miter;stroke:rgb(0%,0%,0%);stroke-opacity:1;stroke-miterlimit:10;" d="M 70.0625 129.398438 L 77.929688 111.316406 "/>
<path style="fill:none;stroke-width:1.2;stroke-linecap:butt;stroke-linejoin:miter;stroke:rgb(0%,0%,100%);stroke-opacity:1;stroke-miterlimit:10;" d="M 49.90625 136.757812 L 62.152344 135.367188 "/>
<path style="fill:none;stroke-width:1.2;stroke-linecap:butt;stroke-linejoin:miter;stroke:rgb(0%,0%,0%);stroke-opacity:1;stroke-miterlimit:10;" d="M 62.152344 135.367188 L 74.398438 133.972656 "/>
<path style="fill:none;stroke-width:1.2;stroke-linecap:butt;stroke-linejoin:miter;stroke:rgb(0%,0%,0%);stroke-opacity:1;stroke-miterlimit:10;" d="M 84.234375 111.371094 L 69.578125 91.554688 "/>
<path style="fill:none;stroke-width:1.2;stroke-linecap:butt;stroke-linejoin:miter;stroke:rgb(0%,0%,0%);stroke-opacity:1;stroke-miterlimit:10;" d="M 69.578125 91.554688 L 45.085938 94.335938 "/>
<path style="fill:none;stroke-width:1.2;stroke-linecap:butt;stroke-linejoin:miter;stroke:rgb(0%,0%,0%);stroke-opacity:1;stroke-miterlimit:10;" d="M 67.78125 97.59375 L 48.1875 99.820312 "/>
<path style="fill:none;stroke-width:1.2;stroke-linecap:butt;stroke-linejoin:miter;stroke:rgb(0%,0%,0%);stroke-opacity:1;stroke-miterlimit:10;" d="M 45.085938 94.335938 L 35.25 116.941406 "/>
<path style="fill:none;stroke-width:1.2;stroke-linecap:butt;stroke-linejoin:miter;stroke:rgb(0%,0%,0%);stroke-opacity:1;stroke-miterlimit:10;" d="M 35.25 116.941406 L 42.578125 126.847656 "/>
<path style="fill:none;stroke-width:1.2;stroke-linecap:butt;stroke-linejoin:miter;stroke:rgb(0%,0%,100%);stroke-opacity:1;stroke-miterlimit:10;" d="M 42.578125 126.847656 L 49.90625 136.757812 "/>
<path style="fill:none;stroke-width:1.2;stroke-linecap:butt;stroke-linejoin:miter;stroke:rgb(0%,0%,0%);stroke-opacity:1;stroke-miterlimit:10;" d="M 41.378906 115.472656 L 47.242188 123.402344 "/>
<path style="fill:none;stroke-width:1.2;stroke-linecap:butt;stroke-linejoin:miter;stroke:rgb(0%,0%,100%);stroke-opacity:1;stroke-miterlimit:10;" d="M 47.242188 123.402344 L 53.105469 131.328125 "/>
<path style=" stroke:none;fill-rule:nonzero;fill:rgb(100%,100%,100%);fill-opacity:1;" d="M 46.90625 131.257812 L 53.90625 131.257812 L 53.90625 142.257812 L 46.90625 142.257812 Z M 46.90625 131.257812 "/>
<g style="fill:rgb(0%,0%,100%);fill-opacity:1;">
  <use xlink:href="#glyph0-1" x="46.90625" y="139.920898"/>
</g>
<path style="fill:none;stroke-width:1.2;stroke-linecap:butt;stroke-linejoin:miter;stroke:rgb(0%,0%,0%);stroke-opacity:1;stroke-miterlimit:10;" d="M 139.695312 160.3125 L 151.449219 164.023438 "/>
<path style="fill:none;stroke-width:1.2;stroke-linecap:butt;stroke-linejoin:miter;stroke:rgb(0%,0%,100%);stroke-opacity:1;stroke-miterlimit:10;" d="M 151.449219 164.023438 L 163.203125 167.730469 "/>
<path style="fill:none;stroke-width:1.2;stroke-linecap:butt;stroke-linejoin:miter;stroke:rgb(0%,0%,100%);stroke-opacity:1;stroke-miterlimit:10;" d="M 163.203125 167.730469 L 165.867188 179.765625 "/>
<path style="fill:none;stroke-width:1.2;stroke-linecap:butt;stroke-linejoin:miter;stroke:rgb(0%,0%,0%);stroke-opacity:1;stroke-miterlimit:10;" d="M 165.867188 179.765625 L 168.53125 191.796875 "/>
<path style="fill:none;stroke-width:1.2;stroke-linecap:butt;stroke-linejoin:miter;stroke:rgb(0%,0%,100%);stroke-opacity:1;stroke-miterlimit:10;" d="M 163.203125 167.730469 L 172.292969 159.40625 "/>
<path style="fill:none;stroke-width:1.2;stroke-linecap:butt;stroke-linejoin:miter;stroke:rgb(0%,0%,0%);stroke-opacity:1;stroke-miterlimit:10;" d="M 172.292969 159.40625 L 181.382812 151.082031 "/>
<path style=" stroke:none;fill-rule:nonzero;fill:rgb(100%,100%,100%);fill-opacity:1;" d="M 160.203125 162.230469 L 167.203125 162.230469 L 167.203125 173.230469 L 160.203125 173.230469 Z M 160.203125 162.230469 "/>
<g style="fill:rgb(0%,0%,100%);fill-opacity:1;">
  <use xlink:href="#glyph0-1" x="160.203125" y="170.893555"/>
</g>
<path style="fill:none;stroke-width:1.2;stroke-linecap:butt;stroke-linejoin:miter;stroke:rgb(0%,0%,0%);stroke-opacity:1;stroke-miterlimit:10;" d="M 184.210938 150.457031 L 181.546875 138.421875 "/>
<path style="fill:none;stroke-width:1.2;stroke-linecap:butt;stroke-linejoin:miter;stroke:rgb(100%,0%,0%);stroke-opacity:1;stroke-miterlimit:10;" d="M 181.546875 138.421875 L 178.882812 126.390625 "/>
<path style="fill:none;stroke-width:1.2;stroke-linecap:butt;stroke-linejoin:miter;stroke:rgb(0%,0%,0%);stroke-opacity:1;stroke-miterlimit:10;" d="M 178.550781 151.710938 L 175.886719 139.675781 "/>
<path style="fill:none;stroke-width:1.2;stroke-linecap:butt;stroke-linejoin:miter;stroke:rgb(100%,0%,0%);stroke-opacity:1;stroke-miterlimit:10;" d="M 175.886719 139.675781 L 173.222656 127.644531 "/>
<path style="fill:none;stroke-width:1.2;stroke-linecap:butt;stroke-linejoin:miter;stroke:rgb(0%,0%,0%);stroke-opacity:1;stroke-miterlimit:10;" d="M 181.382812 151.082031 L 193.132812 154.792969 "/>
<path style="fill:none;stroke-width:1.2;stroke-linecap:butt;stroke-linejoin:miter;stroke:rgb(100%,0%,0%);stroke-opacity:1;stroke-miterlimit:10;" d="M 193.132812 154.792969 L 204.886719 158.5 "/>
<path style=" stroke:none;fill-rule:nonzero;fill:rgb(100%,100%,100%);fill-opacity:1;" d="M 172.050781 121.515625 L 180.050781 121.515625 L 180.050781 132.515625 L 172.050781 132.515625 Z M 172.050781 121.515625 "/>
<g style="fill:rgb(100%,0%,0%);fill-opacity:1;">
  <use xlink:href="#glyph0-2" x="172.050781" y="130.178711"/>
</g>
<path style="fill:none;stroke-width:1.2;stroke-linecap:butt;stroke-linejoin:miter;stroke:rgb(100%,0%,0%);stroke-opacity:1;stroke-miterlimit:10;" d="M 204.886719 158.5 L 213.976562 150.175781 "/>
<path style="fill:none;stroke-width:1.2;stroke-linecap:butt;stroke-linejoin:miter;stroke:rgb(0%,0%,0%);stroke-opacity:1;stroke-miterlimit:10;" d="M 213.976562 150.175781 L 223.066406 141.851562 "/>
<path style=" stroke:none;fill-rule:nonzero;fill:rgb(100%,100%,100%);fill-opacity:1;" d="M 200.886719 153 L 208.886719 153 L 208.886719 164 L 200.886719 164 Z M 200.886719 153 "/>
<g style="fill:rgb(100%,0%,0%);fill-opacity:1;">
  <use xlink:href="#glyph0-2" x="200.886719" y="161.663086"/>
</g>
<path style="fill:none;stroke-width:1.2;stroke-linecap:butt;stroke-linejoin:miter;stroke:rgb(0%,0%,0%);stroke-opacity:1;stroke-miterlimit:10;" d="M 223.066406 141.851562 L 246.574219 149.273438 "/>
<path style="fill:none;stroke-width:1.2;stroke-linecap:butt;stroke-linejoin:miter;stroke:rgb(0%,0%,0%);stroke-opacity:1;stroke-miterlimit:10;" d="M 227.160156 137.0625 L 245.96875 143 "/>
<path style="fill:none;stroke-width:1.2;stroke-linecap:butt;stroke-linejoin:miter;stroke:rgb(0%,0%,0%);stroke-opacity:1;stroke-miterlimit:10;" d="M 217.738281 117.785156 L 223.066406 141.851562 "/>
<path style="fill:none;stroke-width:1.2;stroke-linecap:butt;stroke-linejoin:miter;stroke:rgb(0%,0%,0%);stroke-opacity:1;stroke-miterlimit:10;" d="M 246.574219 149.273438 L 264.75 132.625 "/>
<path style="fill:none;stroke-width:1.2;stroke-linecap:butt;stroke-linejoin:miter;stroke:rgb(0%,0%,0%);stroke-opacity:1;stroke-miterlimit:10;" d="M 264.75 132.625 L 259.421875 108.558594 "/>
<path style="fill:none;stroke-width:1.2;stroke-linecap:butt;stroke-linejoin:miter;stroke:rgb(0%,0%,0%);stroke-opacity:1;stroke-miterlimit:10;" d="M 258.554688 131.46875 L 254.292969 112.21875 "/>
<path style="fill:none;stroke-width:1.2;stroke-linecap:butt;stroke-linejoin:miter;stroke:rgb(0%,0%,0%);stroke-opacity:1;stroke-miterlimit:10;" d="M 259.421875 108.558594 L 235.914062 101.140625 "/>
<path style="fill:none;stroke-width:1.2;stroke-linecap:butt;stroke-linejoin:miter;stroke:rgb(0%,0%,0%);stroke-opacity:1;stroke-miterlimit:10;" d="M 235.914062 101.140625 L 217.738281 117.785156 "/>
<path style="fill:none;stroke-width:1.2;stroke-linecap:butt;stroke-linejoin:miter;stroke:rgb(0%,0%,0%);stroke-opacity:1;stroke-miterlimit:10;" d="M 238.015625 107.082031 L 223.472656 120.398438 "/>
</g>
</svg>

<svg xmlns="http://www.w3.org/2000/svg" xmlns:xlink="http://www.w3.org/1999/xlink" width="300pt" height="300pt" viewBox="0 0 300 300"><defs><symbol overflow="visible"><path d="M.453 1.594v-7.938h4.5v7.938zm.5-.5h3.5v-6.938h-3.5zm0 0"/></symbol><symbol overflow="visible" id="a"><path d="M.89-6.563H2.08l2.906 5.485v-5.484h.86V0H4.656L1.75-5.484V0H.89zm0 0"/></symbol><symbol overflow="visible" id="b"><path d="M3.547-5.953c-.65 0-1.164.242-1.547.72-.375.48-.563 1.13-.563 1.952 0 .835.188 1.49.563 1.967.383.48.898.72 1.547.72.644 0 1.156-.24 1.53-.72.376-.476.564-1.132.564-1.968 0-.822-.187-1.474-.562-1.954-.375-.477-.887-.72-1.53-.72zm0-.734c.914 0 1.648.312 2.203.937.55.617.828 1.438.828 2.47 0 1.042-.277 1.87-.828 2.483-.555.617-1.29.922-2.203.922-.93 0-1.668-.305-2.22-.922C.774-1.41.5-2.237.5-3.28c0-1.033.273-1.853.828-2.47.55-.625 1.29-.938 2.22-.938zm0 0"/></symbol></defs><g><path fill="#fff" d="M0 0h300v300H0z"/><path d="M150.355 208.445l-23.507-7.418M168.53 191.797l-18.175 16.648" stroke-width="1.2" stroke="#000" stroke-miterlimit="10" fill="none"/><path d="M121.52 176.96m.128 2.997l1.02-.223m-.89 3.223l2.038-.453m-1.906 3.45l3.05-.677m-2.92 3.672l4.07-.903m-3.942 3.902l5.09-1.13m-4.96 4.125l6.108-1.35m-5.98 4.346l7.13-1.577m-6.997 4.575l8.143-1.8m-8.1 2.83l8.49-1.882" stroke="#000" stroke-miterlimit="10" fill="none"/><path d="M121.52 176.96l-19.82 14.657M121.52 176.96l18.175-16.648M113.703 153.586l7.817 23.375M101.7 191.617L81.636 177.3M81.637 177.3l3.71-11.753" stroke-width="1.2" stroke="#000" stroke-miterlimit="10" fill="none"/><path d="M85.348 165.547l3.707-11.754M89.055 153.793l12.324-.106" stroke-width="1.2" stroke="#00f" stroke-miterlimit="10" fill="none"/><path d="M101.38 153.688l12.323-.102" stroke-width="1.2" stroke="#000" stroke-miterlimit="10" fill="none"/><path d="M89.055 153.793l-7.328-9.91" stroke-width="1.2" stroke="#00f" stroke-miterlimit="10" fill="none"/><path d="M81.727 143.883l-7.33-9.91" stroke-width="1.2" stroke="#000" stroke-miterlimit="10" fill="none"/><path d="M86.055 148.293h7v11h-7zm0 0" fill="#fff"/><use xlink:href="#a" x="86.055" y="156.956" fill="#00f"/><path d="M74.398 133.973l9.836-22.602M70.063 129.398l7.867-18.082" stroke-width="1.2" stroke="#000" stroke-miterlimit="10" fill="none"/><path d="M49.906 136.758l12.246-1.39" stroke-width="1.2" stroke="#00f" stroke-miterlimit="10" fill="none"/><path d="M62.152 135.367l12.246-1.394M84.234 111.37L69.578 91.556M69.578 91.555l-24.492 2.78M67.78 97.594L48.188 99.82M45.086 94.336L35.25 116.94M35.25 116.94l7.328 9.908" stroke-width="1.2" stroke="#000" stroke-miterlimit="10" fill="none"/><path d="M42.578 126.848l7.328 9.91" stroke-width="1.2" stroke="#00f" stroke-miterlimit="10" fill="none"/><path d="M41.38 115.473l5.862 7.93" stroke-width="1.2" stroke="#000" stroke-miterlimit="10" fill="none"/><path d="M47.242 123.402l5.863 7.926" stroke-width="1.2" stroke="#00f" stroke-miterlimit="10" fill="none"/><path d="M46.906 131.258h7v11h-7zm0 0" fill="#fff"/><use xlink:href="#a" x="46.906" y="139.921" fill="#00f"/><path d="M139.695 160.313l11.754 3.71" stroke-width="1.2" stroke="#000" stroke-miterlimit="10" fill="none"/><path d="M151.45 164.023l11.753 3.707M163.203 167.73l2.664 12.036" stroke-width="1.2" stroke="#00f" stroke-miterlimit="10" fill="none"/><path d="M165.867 179.766l2.664 12.03" stroke-width="1.2" stroke="#000" stroke-miterlimit="10" fill="none"/><path d="M163.203 167.73l9.09-8.324" stroke-width="1.2" stroke="#00f" stroke-miterlimit="10" fill="none"/><path d="M172.293 159.406l9.09-8.324" stroke-width="1.2" stroke="#000" stroke-miterlimit="10" fill="none"/><path d="M160.203 162.23h7v11h-7zm0 0" fill="#fff"/><use xlink:href="#a" x="160.203" y="170.894" fill="#00f"/><path d="M184.21 150.457l-2.663-12.035" stroke-width="1.2" stroke="#000" stroke-miterlimit="10" fill="none"/><path d="M181.547 138.422l-2.664-12.03" stroke-width="1.2" stroke="#f00" stroke-miterlimit="10" fill="none"/><path d="M178.55 151.71l-2.663-12.034" stroke-width="1.2" stroke="#000" stroke-miterlimit="10" fill="none"/><path d="M175.887 139.676l-2.664-12.03" stroke-width="1.2" stroke="#f00" stroke-miterlimit="10" fill="none"/><path d="M181.383 151.082l11.75 3.71" stroke-width="1.2" stroke="#000" stroke-miterlimit="10" fill="none"/><path d="M193.133 154.793l11.754 3.707" stroke-width="1.2" stroke="#f00" stroke-miterlimit="10" fill="none"/><path d="M172.05 121.516h8v11h-8zm0 0" fill="#fff"/><use xlink:href="#b" x="172.051" y="130.179" fill="#f00"/><path d="M204.887 158.5l9.09-8.324" stroke-width="1.2" stroke="#f00" stroke-miterlimit="10" fill="none"/><path d="M213.977 150.176l9.09-8.324" stroke-width="1.2" stroke="#000" stroke-miterlimit="10" fill="none"/><path d="M200.887 153h8v11h-8zm0 0" fill="#fff"/><use xlink:href="#b" x="200.887" y="161.663" fill="#f00"/><path d="M223.066 141.852l23.508 7.42M227.16 137.063L245.97 143M217.738 117.785l5.328 24.067M246.574 149.273l18.176-16.648M264.75 132.625l-5.328-24.066M258.555 131.47l-4.262-19.25M259.422 108.56l-23.508-7.42M235.914 101.14l-18.176 16.645M238.016 107.082l-14.543 13.316" stroke-width="1.2" stroke="#000" stroke-miterlimit="10" fill="none"/></g></svg>
